dist/files/career_logo.svg

<svg width="48" height="48" viewBox="0 0 48 48" fill="none" xmlns="http://www.w3.org/2000/svg">
<mask id="mask0_6248_2826" style="mask-type:luminance" maskUnits="userSpaceOnUse" x="0" y="0" width="48" height="48">
<path d="M0 0H48V47.8641H0V0Z" fill="white"/>
<path d="M0 0H48V47.8641H0V0Z" stroke="white"/>
</mask>
<g mask="url(#mask0_6248_2826)">
<path fill-rule="evenodd" clip-rule="evenodd" d="M2.33294 6.96102L0.437685 4.61629C0.156762 4.26677 0.212947 3.75588 0.562467 3.47496L4.368 0.410279C4.71491 0.130009 5.22906 0.18554 5.50998 0.534408L8.92353 4.76394C9.07444 4.95209 9.13586 5.19577 9.08816 5.43097L8.53938 8.17618L8.89674 8.62043C11.1069 6.97408 13.6143 5.75435 16.2805 5.04225C19.5156 4.17922 22.924 4.07339 26.2023 4.72735V0.812718C26.2023 0.3652 26.5649 0 27.013 0H47.1748C47.6224 0 47.9856 0.3652 47.9856 0.812718V20.9464C47.9856 21.3966 47.6224 21.7591 47.1748 21.7591H43.2661C43.9233 25.0355 43.8168 28.4419 42.9531 31.6738C41.9725 35.3473 40.0224 38.7223 37.3138 41.427C28.807 49.9233 15.0294 49.9233 6.52262 41.427C-2.41075 32.5048 -1.89137 17.9131 7.63324 9.63959L7.27262 9.19207L4.47122 9.14699C4.23015 9.14438 4.00476 9.03332 3.85123 8.84582L2.33294 6.96102ZM9.9146 9.88327L12.1091 12.5984C16.1583 9.64743 21.3554 8.68118 26.2023 9.96755V6.38676C20.4329 5.1324 14.5603 6.41812 9.9146 9.88327ZM41.6041 21.7591H38.0187C39.5455 27.4867 37.9129 33.6089 33.699 37.8169C27.2038 44.3042 16.6326 44.3042 10.1374 37.8169C3.35275 31.0414 3.68464 19.9887 10.8423 13.6202L8.65306 10.9044C-0.134615 18.6121 -0.566453 32.0494 7.67244 40.2785C15.5246 48.1209 28.3059 48.1261 36.1639 40.2785C40.9945 35.4558 43.0485 28.4105 41.6041 21.7591ZM27.8264 5.73018C27.8264 5.73802 27.8264 5.74586 27.8264 5.75697C27.8107 7.51437 27.8401 9.31163 27.8264 11.0716C27.8107 13.2021 27.8454 15.375 27.8264 17.5054V20.1337H30.4899C32.6256 20.15 34.807 20.1154 36.9375 20.1337H46.3615V1.62544H27.8264V5.73018ZM13.1289 13.8639L15.8055 17.1801C18.8506 15.081 22.7861 14.6844 26.2023 16.1635V11.6537C21.6729 10.3066 16.8841 11.1455 13.1289 13.8639ZM36.3305 21.7591H31.8096C33.5612 25.7692 32.7106 30.4985 29.5413 33.6644C25.3379 37.8619 18.4984 37.8619 14.295 33.6644C9.98908 29.3604 10.1001 22.3654 14.542 18.2019L11.8654 14.8857C5.44923 20.6635 5.19509 30.5834 11.2872 36.6683C17.1494 42.52 26.687 42.5259 32.5492 36.6683C36.4952 32.7302 37.9155 27.0634 36.3305 21.7591ZM16.8286 18.4482L19.2883 21.4946C21.3312 20.314 23.947 20.642 25.6404 22.3334C27.6964 24.3874 27.6964 27.7115 25.6404 29.7655C23.5838 31.8195 20.2526 31.8195 18.196 29.7655C16.206 27.7781 16.1367 24.586 18.0241 22.5163L15.5644 19.4699C11.8758 23.0187 11.8229 28.8972 15.4455 32.5152C19.0152 36.0784 24.8212 36.081 28.3909 32.5152C31.2556 29.6544 31.892 25.2922 30.0052 21.7591H27.013C26.5649 21.7591 26.2023 21.3966 26.2023 20.9464V17.966C23.197 16.3759 19.598 16.5954 16.8286 18.4482ZM20.3271 22.7835L22.5529 25.5412C22.9847 26.0788 22.5823 26.8621 21.9198 26.8621C21.6807 26.8621 21.4475 26.7589 21.2861 26.5603L19.0603 23.8027C17.9229 25.2367 18.0372 27.3123 19.3464 28.6196C20.7693 30.0379 23.0697 30.0379 24.4899 28.6196C25.9102 27.198 25.9135 24.9009 24.4899 23.4819C23.3852 22.3785 21.7075 22.1087 20.3271 22.7835ZM44.0024 17.7785H30.1849C29.7347 17.7785 29.3715 17.4159 29.3715 16.9658V9.44882C29.3715 8.99869 29.7347 8.63611 30.1849 8.63611H33.4155V5.41006C33.4155 4.95993 33.7787 4.59734 34.2288 4.59734H39.9584C40.4092 4.59734 40.7724 4.95993 40.7724 5.41006V8.63611H44.0024C44.4531 8.63611 44.8164 8.99869 44.8164 9.44882V16.9658C44.8164 17.4159 44.4531 17.7785 44.0024 17.7785ZM35.0403 8.63611H39.1476V6.22016H35.0403V8.63611ZM30.9963 16.1557H43.1916V13.5412H37.9076V13.7391C37.9076 14.1866 37.5418 14.5518 37.0936 14.5518C36.6461 14.5518 36.2802 14.1866 36.2802 13.7391V13.5412H30.9963V16.1557ZM43.1916 11.9183V10.2589H30.9963V11.9183H43.1916ZM5.18725 5.70405L4.10863 6.57426L4.87954 7.53005L7.00214 7.56468L7.4183 5.4865L6.6474 4.53136L5.18725 5.70405ZM2.21338 4.22953L3.08816 5.30945L5.62693 3.2659L4.75476 2.18336L2.21338 4.22953Z" fill="#000066"/>
</g>
</svg>

<svg width="48" height="48" fill="none" xmlns="http://www.w3.org/2000/svg"><mask id="a" style="mask-type:luminance" maskUnits="userSpaceOnUse" x="0" y="0" width="48" height="48"><path d="M0 0h48v47.864H0V0Z" fill="#fff"/><path d="M0 0h48v47.864H0V0Z" stroke="#fff"/></mask><g mask="url(#a)"><path fill-rule="evenodd" clip-rule="evenodd" d="M2.333 6.961.438 4.616a.812.812 0 0 1 .124-1.141L4.368.41A.814.814 0 0 1 5.51.534l3.414 4.23a.81.81 0 0 1 .164.667L8.54 8.176l.358.444a21.781 21.781 0 0 1 7.383-3.578 21.929 21.929 0 0 1 9.922-.315V.813c0-.448.363-.813.811-.813h20.162c.447 0 .81.365.81.813v20.133c0 .45-.363.813-.81.813h-3.909c.657 3.276.55 6.683-.313 9.915a21.73 21.73 0 0 1-5.64 9.753c-8.506 8.496-22.284 8.496-30.79 0-8.934-8.922-8.414-23.514 1.11-31.787l-.36-.448-2.802-.045a.813.813 0 0 1-.62-.301L2.333 6.96Zm7.582 2.922 2.194 2.715a16.698 16.698 0 0 1 14.093-2.63V6.387c-5.77-1.255-11.642.031-16.287 3.496Zm31.69 11.876h-3.586a16.635 16.635 0 0 1-4.32 16.058c-6.495 6.487-17.066 6.487-23.562 0-6.784-6.776-6.452-17.828.705-24.197l-2.189-2.716c-8.788 7.708-9.22 21.145-.98 29.374 7.852 7.843 20.633 7.848 28.49 0 4.832-4.822 6.886-11.867 5.441-18.519ZM27.825 5.73v.027c-.015 1.757.014 3.555 0 5.315-.015 2.13.02 4.303 0 6.433v2.629h2.664c2.136.016 4.317-.019 6.448 0h9.423V1.625H27.826V5.73ZM13.13 13.864l2.677 3.316a10.786 10.786 0 0 1 10.396-1.017v-4.51c-4.53-1.346-9.318-.508-13.073 2.21Zm23.201 7.895h-4.52c1.751 4.01.9 8.74-2.269 11.905-4.203 4.198-11.043 4.198-15.246 0-4.306-4.304-4.195-11.299.247-15.462l-2.677-3.316c-6.416 5.777-6.67 15.697-.578 21.782 5.862 5.852 15.4 5.858 21.262 0 3.946-3.938 5.367-9.605 3.782-14.909ZM16.83 18.45l2.46 3.046a5.272 5.272 0 0 1 6.351.838 5.249 5.249 0 0 1 0 7.433 5.267 5.267 0 0 1-7.444 0 5.246 5.246 0 0 1-.172-7.25l-2.46-3.046c-3.688 3.549-3.741 9.427-.119 13.045 3.57 3.563 9.376 3.566 12.946 0a9.117 9.117 0 0 0 1.614-10.756h-2.992a.81.81 0 0 1-.81-.813v-2.98a9.158 9.158 0 0 0-9.374.482Zm3.498 4.334 2.226 2.758c.432.538.03 1.321-.633 1.321a.812.812 0 0 1-.634-.302l-2.226-2.757a3.628 3.628 0 0 0 .286 4.817 3.64 3.64 0 0 0 5.144 0 3.627 3.627 0 0 0 0-5.138 3.638 3.638 0 0 0-4.163-.698Zm23.675-5.005H30.185a.812.812 0 0 1-.813-.812V9.449c0-.45.363-.813.813-.813h3.23V5.41c0-.45.364-.813.814-.813h5.73c.45 0 .813.363.813.813v3.226h3.23c.451 0 .814.363.814.813v7.517c0 .45-.363.813-.814.813ZM35.04 8.637h4.108V6.22H35.04v2.416Zm-4.044 7.52h12.196V13.54h-5.284v.198a.815.815 0 0 1-.814.813.815.815 0 0 1-.814-.813v-.198h-5.284v2.615Zm12.196-4.238v-1.66H30.996v1.66h12.196ZM5.187 5.704l-1.078.87.77.956 2.123.035.416-2.079-.77-.955-1.46 1.173ZM2.213 4.23l.875 1.08 2.539-2.044-.872-1.083L2.213 4.23Z" fill="#006"/></g></svg>
